X: 46
T:Young Napoleon's Waltz. WI.046
M:3/4
L:1/4
Q:90
S:Wm Irwin, Folio MS, c1850. AGG's Transcription
R:Waltz
O:England
A:Lake District
Z:vmp.Chris Partington.2005
K:G
D|B3|c>Bc|(e3|d2) b/b/|bag|gfe|(^c3|d2) ^c/d/|!
a3|a2 b/a/|g^c/d/d|^c/e/d ^c/e/|"'etc...'"zzz|zzz|]
